X: 1665
T: The Silk Handkerchief
M:2/4
L:1/16
B:O'Neill's 1665
N:"collected by Cronin"
K:G
d2 \
| gabg efge | dBge dBGB | (3AAA A-B AGAB | cBABcdef |
| gabg efge | dBgedBGB | (3AAA A-B AGAB | cdef g2 :|
|: d2 \
| dggf g2g-f | gaba gfed | eaab a2a-g | agba gfed |
| dggf g2 g-f | edBg eBGB | (3AAA A-B AGAB | cdef g2 :|


